usr/share/icons/biglinux-icons-material-dark/symbolic/status/irc-channel-joined-symbolic.svg

<svg xmlns="http://www.w3.org/2000/svg" viewBox="0 0 22 22">
<defs id="defs3051">
<style id="current-color-scheme" type="text/css">
.ColorScheme-Contrast{color:#232629}
</style>
</defs>
<path d="M7 3v4H3v1h4v6H3v1h4v4h1v-4h3v-1H8V8h6v3h1V8h4V7h-4V3h-1v4H8V3z" class="ColorScheme-Contrast" style="fill:currentColor;fill-opacity:1;stroke:none"/>
<path d="M15.5 12a3.49 3.49 0 0 0-3.5 3.5c0 1.939 1.561 3.5 3.5 3.5s3.5-1.561 3.5-3.5-1.561-3.5-3.5-3.5" style="fill:#2ecc71;fill-opacity:1;stroke:none"/>
</svg>

<svg xmlns="http://www.w3.org/2000/svg" viewBox="0 0 22 22">
  <defs id="defs3051">
    <style type="text/css" id="current-color-scheme">
      .ColorScheme-Text {
        color:#232629;
      }
      </style>
  </defs>
 <path 
     style="fill:currentColor;fill-opacity:1;stroke:none" 
     d="M 7 3 L 7 7 L 3 7 L 3 8 L 7 8 L 7 14 L 3 14 L 3 15 L 7 15 L 7 19 L 8 19 L 8 15 L 11 15 L 11 14 L 8 14 L 8 8 L 14 8 L 14 11 L 15 11 L 15 8 L 19 8 L 19 7 L 15 7 L 15 3 L 14 3 L 14 7 L 8 7 L 8 3 L 7 3 z "
     class="ColorScheme-Text"
     />
    <path
     style="fill:#2ecc71;fill-opacity:1;stroke:none"
     d="M 15.5 12 C 13.561 12 12 13.561 12 15.5 C 12 17.439 13.561 19 15.5 19 C 17.439 19 19 17.439 19 15.5 C 19 13.561 17.439 12 15.5 12 z "
     />
</svg>
